X:1
T:Minuet [25]
T:A New Minuet
B:John Hinton - Universal Magazine of Knowledge and Pleasure (May, 1753, p. 222)
Z:AK/Fiddler's Companion
M:3/4
L:1/8
R:Minuet
K:D
d4 g2|fe d2f2|A4 G2|FE D2A2|e2c2B2|cedcBA|
Ed c2B2|A6:|A4G2|FA d4|Begfed|c4 B2|
A4 G2|F2A2d2|ef g2f2|f2a2f2| b2B2d2|e2g2e2|
f2F2z2|d4c2|B2d2B2|AB c2B2|g2e4|D4G2|
FE D2F2|A4d2|cB A2c2|B2c2d2|A2 GFED|(3BAG F2E2|D6||

